X:4
T:Allez-vous-en
R:Maraichine
A:Poitou - Normandie
O:France
M:2/4
L:1/8
Q:1/8=180
K:G
AB/2A/2GG|AcBG|AB/2A/2GG|AFG2:|
|:GA/2B/2cc|cdcB|AB/2c/2dd|cBA2:|
W:Allez-vous-en jeunes gens d'la noce
W:La mari\'ee est fatigu\'ee (bis)
W:Elle a un' puce dans son corsage
W:Que l'mari\'e veut lui enl'ver (bis)
